src/icons/svg/equitment-manager.svg

<svg t="1571062731002" class="icon" viewBox="0 0 1024 1024" version="1.1" xmlns="http://www.w3.org/2000/svg" p-id="3669" width="128" height="128"><path d="M832 403.498667a21.333333 21.333333 0 0 0 21.333333-21.333334V276.736A106.24 106.24 0 0 0 747.136 170.666667H276.864A106.24 106.24 0 0 0 170.666667 276.736v342.528A106.24 106.24 0 0 0 276.864 725.333333h470.272A106.24 106.24 0 0 0 853.333333 619.264V512a21.333333 21.333333 0 0 0-42.666666 0v107.264A63.573333 63.573333 0 0 1 747.136 682.666667H276.864A63.573333 63.573333 0 0 1 213.333333 619.264V276.736A63.573333 63.573333 0 0 1 276.864 213.333333h470.272A63.573333 63.573333 0 0 1 810.666667 276.736v105.429333a21.333333 21.333333 0 0 0 21.333333 21.333334M792.874667 810.666667H232.874667a21.333333 21.333333 0 0 0 0 42.666666h560a21.333333 21.333333 0 0 0 0-42.666666" p-id="3670" fill="#ffffff"></path></svg>

<svg class="icon" viewBox="0 0 1024 1024" xmlns="http://www.w3.org/2000/svg" width="128" height="128"><path d="M832 403.499a21.333 21.333 0 0021.333-21.334V276.736a106.24 106.24 0 00-106.197-106.07H276.864a106.24 106.24 0 00-106.197 106.07v342.528a106.24 106.24 0 00106.197 106.07h470.272a106.24 106.24 0 00106.197-106.07V512a21.333 21.333 0 00-42.666 0v107.264a63.573 63.573 0 01-63.531 63.403H276.864a63.573 63.573 0 01-63.53-63.403V276.736a63.573 63.573 0 0163.53-63.403h470.272a63.573 63.573 0 0163.53 63.403v105.43A21.333 21.333 0 00832 403.498m-39.125 407.168h-560a21.333 21.333 0 000 42.666h560a21.333 21.333 0 000-42.666" /></svg>
